X: 1153
T: İpek Saçların
C: Sadettin Kaynak
O: Turkey
F: http://compmusic.upf.edu/node/140
N: mahur--sarki--duyek--ipek_saclarin--sadettin_kaynak
N: makam= mahur
N: form= sarki
N: usul= duyek = 8/4
M: 8/4
L: 1/16
K: C ^9/8f   
Q: 1/4=108
%%MIDI tuningsystem comma53
=f2 g6 g/ag/ (3fef f/gf/ (3ede  | \
w:   | 
g/ag/ (3=fede(3def2gz2gzdgzg2f^1/4e=e2f2g4g/a3/2gff/g3/2fee(3fgg(3fedz2dzAdzg4g2gff2fee2edd2dcc3/2d/BAB/c/c/B/AB/c/c/B/AG2A6A2G4=F/E/F3A/G/A3A(3Bcc(3BAGz2GzDGzzc'baaggfg2z2A(3Bcc(3BAzc'baaggfg2z2e(3fgfe  | 
w:   | 
dg3/2a/=f3/2g/e3/2f/d3/2c/f8f3/2g/e3/2f/d3/2e/c3/2B/e8d3/2e/c3/2d/B3/2A/c3/2B/A8A3/2c/B3/2A/G3/2=F/B3/2A/G8b4b2b2b4b4b4b c'2 b/a/a z2 az ga  | 
w:   | 
a4 a2 a2 a4 d'3c'  | b3a (3abc' (3c'ba gz2g zd gz  | 
w:   |   | 
g4 g2 g=f f2 fe e2 ed  | d2 dc c3/2d/ BA B/c/c/B/ AB/c/ c/B/A G2  | 
w:   |   | 
A6 A2 G4 =F/E/F3  | A/G/A3 (3ABc (3cBA Gz2G zD Gz  | 
w:   |   | 
zc' ba ag g=f g2 z2 (3ABc (3cBA  | \
w:   | 
zc' ba ag g=f g2 z2 (3efg (3f(3e(3d(3g3/2(3a/(3f3/2(3g/(3e3/2(3f/(3d3/2(3c/(3f8(3f3/2(3g/(3e3/2(3f/(3d3/2(3e/(3c3/2(3B/(3e8(3d3/2(3e/(3c3/2(3d/(3B3/2(3A/(3c3/2(3B/(3A8(3A3/2(3c/(3B3/2(3A/(3G3/2(3=F/(3B3/2(3A/(3G8(3b4(3b2(3b2(3b4(3b4(3b4(3b(3c'2(3b/(3a/(3a(3z2(3a(3z(3g(3a(3a4(3a2(3a2(3a4(3d'3(3c'(3b3(3aab(3c'c'b(3a(3g(3z2(3g(3z(3d(3g(3z(3d2^cB(3A(3B2(3c2(3d4(3d/(3_e3/2(3d(3c(3c/(3d3/2cB(3ABA(3B(3c2(3d(3z2(3d(3z(3A(3d(3z(3f3(3e/(3d/(3g2(3g2(3g(3f3(3f(3e3(3e(3d3(3c2ed(3e(3f2(3d(3z2(3d(3z(3A(3d(3z(3d2cB(3A(3B2(3c2(3d4(3d/(3e3/2(3d(3c(3c/(3d3/2cB(3ABA(3B(3c2(3d(3z2(3d(3z(3A(3d(3z(3f3(3e/(3d/(3g2(3g2(3g4(3_7/8b4(3=b2(3a2(3g2(3f2(3a/(3g/(3a(3b2(3g(3z2(3g(3z(3d(3g(3z|
w:   | 


